dist/img/youtube.svg

<svg width="22" height="16" viewBox="0 0 22 16" fill="none" xmlns="http://www.w3.org/2000/svg">
<path d="M0.192081 3.09658C0.29307 1.54183 1.54307 0.323373 3.09919 0.246279C5.35256 0.134641 8.57327 0 11 0C13.4267 0 16.6474 0.134641 18.9007 0.246279C20.4569 0.323373 21.7069 1.54183 21.8079 3.09659C21.9046 4.58616 22 6.41902 22 7.85714C22 9.29527 21.9046 11.1281 21.8079 12.6177C21.7069 14.1725 20.4569 15.3909 18.9007 15.468C16.6474 15.5796 13.4267 15.7143 11 15.7143C8.57327 15.7143 5.35256 15.5796 3.09919 15.468C1.54307 15.3909 0.29307 14.1725 0.192081 12.6177C0.0953268 11.1281 -3.05176e-05 9.29527 -3.05176e-05 7.85714C-3.05176e-05 6.41902 0.0953269 4.58616 0.192081 3.09658Z" fill="white"/>
<path d="M8.64282 4.71423V10.9999L14.9285 7.85709L8.64282 4.71423Z" fill="#1C1C1C"/>
</svg>

<svg width="22" height="16" fill="none" xmlns="http://www.w3.org/2000/svg"><path d="M.192 3.097A3.053 3.053 0 0 1 3.1.247C5.353.134 8.573 0 11 0c2.427 0 5.647.135 7.9.246a3.053 3.053 0 0 1 2.908 2.85c.097 1.49.192 3.323.192 4.761 0 1.438-.095 3.271-.192 4.76a3.053 3.053 0 0 1-2.907 2.851c-2.254.112-5.474.246-7.901.246-2.427 0-5.647-.134-7.9-.246a3.053 3.053 0 0 1-2.908-2.85C.095 11.128 0 9.295 0 7.858c0-1.439.095-3.272.192-4.761Z" fill="#fff"/><path d="M8.643 4.714V11l6.285-3.143-6.285-3.143Z" fill="#1C1C1C"/></svg>
